digital/Imbassy-X-Files/65ef0811cc67439994568a45/65ef0811cc67439994568f62_forbes.svg

<svg fill="none" height="56" viewBox="0 0 91 56" width="91" xmlns="http://www.w3.org/2000/svg" xmlns:xlink="http://www.w3.org/1999/xlink"><clipPath id="a"><path d="m0 0h91v56h-91z"/></clipPath><g clip-path="url(#a)"><path d="m8.77948 18.2362h1.99782c1.2167-.18 2.4592-.0217 3.5927.4579 1.4219.8595 2.4533 2.2433 2.874 3.8562.298.8452.298.8452 1.0165.5458h.5608v-6.6911h-18.8043053v1.1797h.7710993c.335086-.0023.666436.0708.969706.214.30327.1433.57075.3529.78279.6136.71853 1.1622.8412 2.4652.8412 9.2443 0 7.2018-.15772 8.9626-.8412 9.8606-.16873.2309-.38718.4205-.63905.5546-.25187.1342-.53065.2095-.81552.2202-1.0690253.1937-1.0690253.1761-1.0690253.6515-.0591179.159-.0591179.3341 0 .493h11.8644053c.0785-.1555.1194-.3274.1194-.5018s-.0409-.3463-.1194-.5018c-.2874-.0804-.5802-.1392-.8762-.1761-.3203-.0383-.6368-.1031-.9464-.1937-.44335-.3252-.79456-.761-1.01893-1.2644s-.31412-1.0569-.26039-1.6057c-.17525-1.1622-.26287-3.2928-.26287-5.0536v-1.3911h.701c.87339-.0268 1.74619.068 2.59369.2818.406.2521.7516.5911 1.0121.9929.2606.4018.4296.8564.4951 1.3314l.1577.5458h1.069v-7.8004h-.9814l-.1577.7571c-.0664.4858-.2452.9491-.5222 1.3528s-.6444.7364-1.0726.9715c-.4147.124-.8516.1541-1.2793.0881h-2.01539v-1.9017c0-1.9721.10515-6.1277.17525-6.7792zm82.01692 13.9634c-.8284-1.3397-2.1204-2.3243-3.6277-2.7645-1.1555-.3629-2.2236-.9625-3.137-1.7609-.2055-.1997-.3592-.4469-.4478-.7201-.0886-.2731-.1093-.5639-.0604-.847.0014-.5552.222-1.0872.6134-1.4791.2653-.2791.601-.4807.9714-.583s.7615-.1017 1.1316.002c.7661.2193 1.4589.6428 2.005 1.2256s.9251 1.3031 1.0969 2.0847c.2804.7924.3155.7924.8237.5811l.3154-.1233v-4.3844l-.2278-.1057c-1.7253-.6088-3.5555-.8604-5.3802-.7395-1.5713.04-3.0712.6679-4.206 1.7608-.5146.484-.9177 1.0752-1.1811 1.7322-.2633.657-.3806 1.3639-.3435 2.0712.0098 1.0813.4371 2.1166 1.1917 2.8877.8339.8241 1.8572 1.4289 2.9792 1.7608 2.7164 1.0741 3.505 1.7609 3.505 3.011.0117.5273-.1555 1.0428-.4739 1.4619-.3185.4192-.7694.7171-1.2786.8448-.6119.1351-1.2457.1351-1.8576 0-.8012-.3124-1.5166-.8125-2.0866-1.4588-.57-.6462-.9782-1.4198-1.1906-2.2565l-.2278-.5635h-.3155c-.1507.0113-.2987.047-.4381.1057h-.1753v5.0007h.298c1.1839.3957 2.4055.6672 3.6452.81h1.7525c.76.056 1.524-.0154 2.2607-.2113.9353-.1734 1.8091-.5897 2.5346-1.2075.7256-.6178 1.2776-1.4156 1.6013-2.3142.2091-.5018.3164-1.0406.3154-1.5847.0691-.7665-.0639-1.5377-.3855-2.2362zm-16.5085-9.1035c-1.0502-.443-2.1817-.6579-3.3204-.6306-1.1386.0273-2.2586.2962-3.2866.7891-.9662.4749-1.8226 1.148-2.5138 1.976-.6913.828-1.2021 1.7924-1.4994 2.831-.3791 1.133-.5396 2.3282-.4732 3.5217-.0125.6493.0403 1.2982.1578 1.9369.283 1.5703 1.0375 3.016 2.1622 4.1428 1.1246 1.1269 2.5656 1.8809 4.1292 2.1609 1.0183.1289 2.0486.1289 3.0669 0 1.0566-.1871 2.0679-.5756 2.9792-1.1445.7539-.4246 1.3919-1.0294 1.8577-1.7608-.0299-.1148-.0826-.2223-.1548-.3161-.0723-.0938-.1627-.172-.2658-.2298-.2.0728-.3888.1736-.5608.2993-.8717.5772-1.901.8666-2.9442.8276-.6924.0471-1.3866-.0613-2.0322-.3171s-1.2265-.6527-1.7006-1.162c-.3668-.3422-.6695-.7477-.8938-1.1973-.5446-1.0947-.838-2.2981-.8587-3.5217v-.6867h9.7088v-.3521c.0215-.3519.0215-.7047 0-1.0565-.0035-1.2433-.3344-2.4636-.9593-3.5367-.6248-1.0732-1.5213-1.9611-2.5982-2.5734zm-4.8895 6.0925h-1.2268v-1.0389c.4031-2.6589 1.402-4.2436 2.6288-4.2436 1.2267 0 1.7525 1.5671 1.9803 4.4373v.8099h-1.0515zm-25.2009-6.6736c-.6056-.0236-1.2076.1035-1.7525.3698-1.1845.578-2.1412 1.5392-2.7164 2.7293l-.2278.4226v-3.5217h-.0877c-.2102 0-6.6945 1.303-6.9048 1.3911-.2103.088-.1402.1056-.1402.4226 0 .3169 0 .3698.1402.3874l.6835.1408c.1914.0048.3792.0532.5493.1417.17.0884.3178.2146.4321.369.4381.581.5257 1.6023.5257 5.9515.0866 1.958.0045 3.9198-.2453 5.8636-.0588.2931-.2067.5606-.4233.7656s-.4913.3374-.7859.3789l-.5959.1233h-.2278v.493c-.0636.1642-.0636.3464 0 .5106h9.7964v-.5106c.034-.1685.034-.3421 0-.5106-.5898-.0231-1.1763-.0997-1.7525-.2289-.3137-.1649-.5703-.4214-.7361-.7357s-.233-.6717-.1927-1.0252c-.1402-1.0212-.2103-4.0146-.1752-6.3037.035-2.2891 0-2.4299.1927-2.5884.5865-.4518 1.3121-.6824 2.0505-.6515.6959.0152 1.3792.1899 1.9978.5106.2145.1197.4445.2086.6835.2641 0 0 1.7525-4.2611 1.7525-4.4548-.2243-.2619-.51-.4634-.8313-.5864s-.668-.1635-1.0088-.118zm-11.8119 7.3955c-.0611-1.2583-.4207-2.4837-1.0486-3.574-.628-1.0904-1.5062-2.0142-2.5615-2.6945-1.2541-.6798-2.6494-1.0546-4.0738-1.0944-1.4244-.0397-2.8382.2567-4.1279.8655-1.8235.9661-3.2003 2.6084-3.838 4.5781-.6586 2.2053-.6586 4.5563 0 6.7616.3453 1.2052.9907 2.3021 1.8752 3.187 1.1016 1.08 2.5221 1.772 4.0483 1.9722.9797.0823 1.9645.0823 2.9442 0 .3605-.0552.7174-.1316 1.069-.2289 1.4265-.401 2.7098-1.2018 3.6998-2.3088.9901-1.107 1.6458-2.4744 1.8907-3.9422.1749-1.1653.2161-2.3469.1226-3.5216zm-7.2904 8.8041c-1.7525.5282-3.0668-1.1798-3.505-4.7718-.1609-1.8806-.1609-3.7717 0-5.6523.3505-2.8877 1.2443-4.3492 2.6288-4.3492.2793-.0174.5587.0327.8148.146.2561.1134.4815.2867.6573.5055 1.1742 1.1798 1.7525 3.5217 1.7525 7.0433.1458 1.993-.166 3.9931-.9113 5.8459-.3291.5404-.8383.946-1.4371 1.1446zm31.545-15.8474c-.4945-.0639-.9951-.0639-1.4896 0-.9493-.0008-1.8876.2034-2.7514.5987l-.5433.2289v-3.821c.0949-1.2895.0949-2.5843 0-3.8738-.2103 0-6.9049 1.2854-7.01 1.3382-.0517.13-.0517.275 0 .405 0 .3698 0 .3522.7886.5283.2214.0499.4341.133.6309.2465.3421.3232.5698.7498.6484 1.2149.1996 1.3401.2642 2.6969.1928 4.0499v15.46l.4732.1057c.701.1585 2.6813.493 3.3297.5635 1.2948.1034 2.5958.1034 3.8906 0 1.4372-.1475 2.807-.6863 3.962-1.5582s2.0513-2.0439 2.5923-3.3898c.3226-.8638.546-1.7617.666-2.6764.1043-1.239.0631-2.486-.1227-3.7153-.188-1.378-.7933-2.6646-1.7338-3.6851-.9405-1.0206-2.1707-1.7258-3.5237-2.02zm-4.5915 15.5481c0-.2289-.1753-7.9413-.1402-11.0228v-2.4123l.5082-.1233c.3429-.0493.691-.0493 1.034 0 .3792-.0387.7606.0478 1.0865.2465.6545.4539 1.1979 1.051 1.5895 1.7464.3916.6953.6211 1.4709.6712 2.2683.1277 1.2822.1277 2.574 0 3.8562-.1049 1.8636-.8195 3.6402-2.0329 5.0536-.3443.3286-.7768.549-1.2442.6339-.3537.0618-.7154.0618-1.0691 0-.3329 0-.3329-.1057-.3329-.2465z" fill="#fff"/></g></svg>

<svg width="91" height="56" viewBox="0 0 91 56" fill="none" xmlns="http://www.w3.org/2000/svg">
<g clip-path="url(#clip0_785_1223)">
<path d="M8.77948 18.2362H10.7773C11.994 18.0562 13.2365 18.2145 14.37 18.6941C15.7919 19.5536 16.8233 20.9374 17.244 22.5503C17.542 23.3955 17.542 23.3955 18.2605 23.0961H18.8213V16.405H0.0169947V17.5847H0.788094C1.12318 17.5824 1.45453 17.6555 1.7578 17.7987C2.06107 17.942 2.32855 18.1516 2.54059 18.4123C3.25912 19.5745 3.38179 20.8775 3.38179 27.6566C3.38179 34.8584 3.22407 36.6192 2.54059 37.5172C2.37186 37.7481 2.15341 37.9377 1.90154 38.0718C1.64967 38.206 1.37089 38.2813 1.08602 38.292C0.0169947 38.4857 0.0169947 38.4681 0.0169947 38.9435C-0.0421232 39.1025 -0.0421232 39.2776 0.0169947 39.4365H11.8814C11.9599 39.281 12.0008 39.1091 12.0008 38.9347C12.0008 38.7603 11.9599 38.5884 11.8814 38.4329C11.594 38.3525 11.3012 38.2937 11.0052 38.2568C10.6849 38.2185 10.3684 38.1537 10.0588 38.0631C9.61545 37.7379 9.26424 37.3021 9.03987 36.7987C8.8155 36.2953 8.72575 35.7418 8.77948 35.193C8.60423 34.0308 8.51661 31.9002 8.51661 30.1394V28.7483H9.21761C10.091 28.7215 10.9638 28.8163 11.8113 29.0301C12.2173 29.2822 12.5629 29.6212 12.8234 30.023C13.084 30.4248 13.253 30.8794 13.3185 31.3544L13.4762 31.9002H14.5452V24.0998H13.5638L13.4061 24.8569C13.3397 25.3427 13.1609 25.806 12.8839 26.2097C12.6069 26.6134 12.2395 26.9461 11.8113 27.1812C11.3966 27.3052 10.9597 27.3353 10.532 27.2693H8.51661V25.3676C8.51661 23.3955 8.62176 19.2399 8.69186 18.5884L8.77948 18.2362ZM90.7964 32.1996C89.968 30.8599 88.676 29.8753 87.1687 29.4351C86.0132 29.0722 84.9451 28.4726 84.0317 27.6742C83.8262 27.4745 83.6725 27.2273 83.5839 26.9541C83.4953 26.681 83.4746 26.3902 83.5235 26.1071C83.5249 25.5519 83.7455 25.0199 84.1369 24.628C84.4022 24.3489 84.7379 24.1473 85.1083 24.045C85.4787 23.9427 85.8698 23.9433 86.2399 24.047C87.006 24.2663 87.6988 24.6898 88.2449 25.2726C88.791 25.8554 89.17 26.5757 89.3418 27.3573C89.6222 28.1497 89.6573 28.1497 90.1655 27.9384L90.4809 27.8151V23.4307L90.2531 23.325C88.5278 22.7162 86.6976 22.4646 84.8729 22.5855C83.3016 22.6255 81.8017 23.2534 80.6669 24.3463C80.1523 24.8303 79.7492 25.4215 79.4858 26.0785C79.2225 26.7355 79.1052 27.4424 79.1423 28.1497C79.1521 29.231 79.5794 30.2663 80.334 31.0374C81.1679 31.8615 82.1912 32.4663 83.3132 32.7982C86.0296 33.8723 86.8182 34.5591 86.8182 35.8092C86.8299 36.3365 86.6627 36.852 86.3443 37.2711C86.0258 37.6903 85.5749 37.9882 85.0657 38.1159C84.4538 38.251 83.82 38.251 83.2081 38.1159C82.4069 37.8035 81.6915 37.3034 81.1215 36.6571C80.5515 36.0109 80.1433 35.2373 79.9309 34.4006L79.7031 33.8371H79.3876C79.2369 33.8484 79.0889 33.8841 78.9495 33.9428H78.7742V38.9435H79.0722C80.2561 39.3392 81.4777 39.6107 82.7174 39.7535H84.4699C85.2299 39.8095 85.9939 39.7381 86.7306 39.5422C87.6659 39.3688 88.5397 38.9525 89.2652 38.3347C89.9908 37.7169 90.5428 36.9191 90.8665 36.0205C91.0756 35.5187 91.1829 34.9799 91.1819 34.4358C91.251 33.6693 91.118 32.8981 90.7964 32.1996ZM74.2879 23.0961C73.2377 22.6531 72.1062 22.4382 70.9675 22.4655C69.8289 22.4928 68.7089 22.7617 67.6809 23.2546C66.7147 23.7295 65.8583 24.4026 65.1671 25.2306C64.4758 26.0586 63.965 27.023 63.6677 28.0616C63.2886 29.1946 63.1281 30.3898 63.1945 31.5833C63.182 32.2326 63.2348 32.8815 63.3523 33.5202C63.6353 35.0905 64.3898 36.5362 65.5145 37.663C66.6391 38.7899 68.0801 39.5439 69.6437 39.8239C70.662 39.9528 71.6923 39.9528 72.7106 39.8239C73.7672 39.6368 74.7785 39.2483 75.6898 38.6794C76.4437 38.2548 77.0817 37.65 77.5475 36.9186C77.5176 36.8038 77.4649 36.6963 77.3927 36.6025C77.3204 36.5087 77.23 36.4305 77.1269 36.3727C76.9269 36.4455 76.7381 36.5463 76.5661 36.672C75.6944 37.2492 74.6651 37.5386 73.6219 37.4996C72.9295 37.5467 72.2353 37.4383 71.5897 37.1825C70.9441 36.9267 70.3632 36.5298 69.8891 36.0205C69.5223 35.6783 69.2196 35.2728 68.9953 34.8232C68.4507 33.7285 68.1573 32.5251 68.1366 31.3015V30.6148H77.8454V30.2627C77.8669 29.9108 77.8669 29.558 77.8454 29.2062C77.8419 27.9629 77.511 26.7426 76.8861 25.6695C76.2613 24.5963 75.3648 23.7084 74.2879 23.0961ZM69.3984 29.1886H68.1716V28.1497C68.5747 25.4908 69.5736 23.9061 70.8004 23.9061C72.0271 23.9061 72.5529 25.4732 72.7807 28.3434V29.1533H71.7292L69.3984 29.1886ZM44.1975 22.515C43.5919 22.4914 42.9899 22.6185 42.445 22.8848C41.2605 23.4628 40.3038 24.424 39.7286 25.6141L39.5008 26.0367V22.515H39.4131C39.2029 22.515 32.7186 23.818 32.5083 23.9061C32.298 23.9941 32.3681 24.0117 32.3681 24.3287C32.3681 24.6456 32.3681 24.6985 32.5083 24.7161L33.1918 24.8569C33.3832 24.8617 33.571 24.9101 33.7411 24.9986C33.9111 25.087 34.0589 25.2132 34.1732 25.3676C34.6113 25.9486 34.6989 26.9699 34.6989 31.3191C34.7855 33.2771 34.7034 35.2389 34.4536 37.1827C34.3948 37.4758 34.2469 37.7433 34.0303 37.9483C33.8137 38.1533 33.539 38.2857 33.2444 38.3272L32.6485 38.4505H32.4207V38.9435C32.3571 39.1077 32.3571 39.2899 32.4207 39.4541H42.2171V38.9435C42.2511 38.775 42.2511 38.6014 42.2171 38.4329C41.6273 38.4098 41.0408 38.3332 40.4646 38.204C40.1509 38.0391 39.8943 37.7826 39.7285 37.4683C39.5627 37.154 39.4955 36.7966 39.5358 36.4431C39.3956 35.4219 39.3255 32.4285 39.3606 30.1394C39.3956 27.8503 39.3606 27.7095 39.5533 27.551C40.1398 27.0992 40.8654 26.8686 41.6038 26.8995C42.2997 26.9147 42.983 27.0894 43.6016 27.4101C43.8161 27.5298 44.0461 27.6187 44.2851 27.6742C44.2851 27.6742 46.0376 23.4131 46.0376 23.2194C45.8133 22.9575 45.5276 22.756 45.2063 22.633C44.885 22.51 44.5383 22.4695 44.1975 22.515ZM32.3856 29.9105C32.3245 28.6522 31.9649 27.4268 31.337 26.3365C30.709 25.2461 29.8308 24.3223 28.7755 23.642C27.5214 22.9622 26.1261 22.5874 24.7017 22.5476C23.2773 22.5079 21.8635 22.8043 20.5738 23.4131C18.7503 24.3792 17.3735 26.0215 16.7358 27.9912C16.0772 30.1965 16.0772 32.5475 16.7358 34.7528C17.0811 35.958 17.7265 37.0549 18.611 37.9398C19.7126 39.0198 21.1331 39.7118 22.6593 39.912C23.639 39.9943 24.6238 39.9943 25.6035 39.912C25.964 39.8568 26.3209 39.7804 26.6725 39.6831C28.099 39.2821 29.3823 38.4813 30.3723 37.3743C31.3624 36.2673 32.0181 34.8999 32.263 33.4321C32.4379 32.2668 32.4791 31.0852 32.3856 29.9105ZM25.0952 38.7146C23.3427 39.2428 22.0284 37.5348 21.5902 33.9428C21.4293 32.0622 21.4293 30.1711 21.5902 28.2905C21.9407 25.4028 22.8345 23.9413 24.219 23.9413C24.4983 23.9239 24.7777 23.974 25.0338 24.0873C25.2899 24.2007 25.5153 24.374 25.6911 24.5928C26.8653 25.7726 27.4436 28.1145 27.4436 31.6361C27.5894 33.6291 27.2776 35.6292 26.5323 37.482C26.2032 38.0224 25.694 38.428 25.0952 38.6266V38.7146ZM56.6402 22.8672C56.1457 22.8033 55.6451 22.8033 55.1506 22.8672C54.2013 22.8664 53.263 23.0706 52.3992 23.4659L51.8559 23.6948V19.8738C51.9508 18.5843 51.9508 17.2895 51.8559 16C51.6456 16 44.951 17.2854 44.8459 17.3382C44.7942 17.4682 44.7942 17.6132 44.8459 17.7432C44.8459 18.113 44.8459 18.0954 45.6345 18.2715C45.8559 18.3214 46.0686 18.4045 46.2654 18.518C46.6075 18.8412 46.8352 19.2678 46.9138 19.7329C47.1134 21.073 47.178 22.4298 47.1066 23.7828V39.2428L47.5798 39.3485C48.2808 39.507 50.2611 39.8415 50.9095 39.912C52.2043 40.0154 53.5053 40.0154 54.8001 39.912C56.2373 39.7645 57.6071 39.2257 58.7621 38.3538C59.9171 37.4819 60.8134 36.3099 61.3544 34.964C61.677 34.1002 61.9004 33.2023 62.0204 32.2876C62.1247 31.0486 62.0835 29.8016 61.8977 28.5723C61.7097 27.1943 61.1044 25.9077 60.1639 24.8872C59.2234 23.8666 57.9932 23.1614 56.6402 22.8672ZM52.0487 38.4153C52.0487 38.1864 51.8734 30.474 51.9085 27.3925V24.9802L52.4167 24.8569C52.7596 24.8076 53.1077 24.8076 53.4507 24.8569C53.8299 24.8182 54.2113 24.9047 54.5372 25.1034C55.1917 25.5573 55.7351 26.1544 56.1267 26.8498C56.5183 27.5451 56.7478 28.3207 56.7979 29.1181C56.9256 30.4003 56.9256 31.6921 56.7979 32.9743C56.693 34.8379 55.9784 36.6145 54.765 38.0279C54.4207 38.3565 53.9882 38.5769 53.5208 38.6618C53.1671 38.7236 52.8054 38.7236 52.4517 38.6618C52.1188 38.6618 52.1188 38.5561 52.1188 38.4153H52.0487Z" fill="white"/>
</g>
<defs>
<clipPath id="clip0_785_1223">
<rect width="91" height="56" fill="white"/>
</clipPath>
</defs>
</svg>
